X:120
T:Just as the Tide was Flowing
M:4/4
L:1/4
R:polka
K:G
D |:GGED|GG A G/2A/2|B2 A2|B/2A/2 GED |
  |GGED|GG A G/2A/2 |Bd c/2B/2 A/2G/2|1 EFGD :|2 EFGA|
  |:Bd dd|de d2 |dB B/2A/2 G/2A/2| BG ED|
  |GG ED| GG A G/2A/2| Bd c/2B/2 A/2G/2|1 EFGA:|2 EFGD|
